!!!OTL: 187. Sher
!!!Genre:	Sher
!!!Mode:	Minor
!!!Listening/dance:	dance
!!!One_Mode:	no
**kern
*thru
*I"P1
*clefG2
*k[b-e-]
*B-:
*>B
!LO:TX:a:i:t=Bb-major
8r
8fL
8b-
8ddJ
=17
4ff
4ee-
=18
4dd
4ee-
=19
4.dd
8cc
=20
8ddL
8ccJ
4b-
=21
8cc
4cc
8b-
=22
4ff
16ee-LL
16ddJ
8ccJ
=23
2dd
=24
4dd
8r
16ddLL
16ddJJ
=25
4ff
4gg
=26
8aa-XL
8gg
8ff
8ee-J
=27
(4.dd
8cc)
=28
8ddL
8ccJ
4b-
!!!End-Modulation
*-
